;FLAVOR:UltiGCode
;TIME:3817
;MATERIAL:8377
;MATERIAL2:0
;NOZZLE_DIAMETER:0.6
;MINX:53.259
;MINY:89.337
;MINZ:0.4
;MAXX:141.213
;MAXY:176.712
;MAXZ:2.5
;Generated with Cura_SteamEngine 4.1.0
M82 ;absolute extrusion mode

G92 E0
G92 E0
G10
;LAYER_COUNT:15
;LAYER:0
M107
G0 F3927.3 X68.909 Y91.73 Z0.4
;TYPE:SKIRT
G11
G1 F1800 X69.574 Y91.266 E0.17191
G1 X70.281 Y90.87 E0.3437
G1 X71.024 Y90.545 E0.51563
G1 X71.795 Y90.296 E0.68739
G1 X72.586 Y90.123 E0.85905
G1 X73.391 Y90.029 E1.03087
G1 X73.887 Y90.011 E1.13609
G1 X85.435 Y89.939 E3.58431
G1 X95.283 Y89.939 E5.67209
G1 X96.092 Y89.979 E5.8438
G1 X96.894 Y90.099 E6.01572
G1 X97.68 Y90.296 E6.18751
G1 X98.442 Y90.571 E6.35925
G1 X99.174 Y90.919 E6.53108
G1 X99.868 Y91.338 E6.70294
G1 X100.518 Y91.823 E6.87487
G1 X101.116 Y92.369 E7.04654
G1 X101.658 Y92.972 E7.21843
G1 X102.002 Y93.441 E7.34174
G1 X104.192 Y92.899 E7.82002
G1 X104.988 Y92.744 E7.99195
G1 X106.165 Y92.659 E8.24212
G1 X110.03 Y92.659 E9.0615
G1 X113.682 Y91.754 E9.85914
G1 X114.477 Y91.598 E10.0309
G1 X115.284 Y91.522 E10.20274
G1 X116.094 Y91.525 E10.37446
G1 X116.9 Y91.608 E10.54623
G1 X117.695 Y91.769 E10.71819
G1 X118.469 Y92.009 E10.88999
G1 X119.216 Y92.323 E11.06178
G1 X119.928 Y92.71 E11.23358
G1 X120.599 Y93.165 E11.40545
G1 X121.221 Y93.684 E11.57719
G1 X121.519 Y93.987 E11.66728
G1 X127.672 Y90.434 E13.17358
G1 X128.393 Y90.064 E13.34538
G1 X129.147 Y89.766 E13.51726
G1 X129.927 Y89.545 E13.68913
G1 X130.724 Y89.401 E13.86083
G1 X131.532 Y89.337 E14.03266
G1 X132.342 Y89.352 E14.20441
G1 X133.147 Y89.448 E14.37628
G1 X133.939 Y89.622 E14.54819
G1 X134.709 Y89.873 E14.71988
G1 X135.451 Y90.199 E14.8917
G1 X136.157 Y90.596 E15.06341
G1 X136.821 Y91.062 E15.23539
G1 X137.436 Y91.59 E15.40723
G1 X137.995 Y92.176 E15.57892
G1 X138.494 Y92.815 E15.7508
G1 X138.893 Y93.438 E15.90764
G1 X139.521 Y94.525 E16.17378
G1 X139.892 Y95.246 E16.34568
G1 X140.189 Y96 E16.51748
G1 X140.411 Y96.78 E16.68941
G1 X140.555 Y97.577 E16.86111
G1 X140.619 Y98.385 E17.03294
G1 X140.604 Y99.195 E17.20469
G1 X140.509 Y100 E17.37653
G1 X140.335 Y100.792 E17.54844
G1 X140.105 Y101.496 E17.70545
G1 X140.199 Y101.653 E17.74425
G1 X140.544 Y102.386 E17.91599
G1 X140.814 Y103.15 E18.08778
G1 X141.008 Y103.937 E18.25962
G1 X141.123 Y104.739 E18.43138
G1 X141.159 Y105.455 E18.58336
G1 X141.213 Y114.115 E20.41932
G1 X141.178 Y114.924 E20.59099
G1 X141.063 Y115.727 E20.76296
G1 X140.87 Y116.514 E20.93475
G1 X140.601 Y117.278 E21.10646
G1 X140.257 Y118.012 E21.27831
G1 X139.843 Y118.709 E21.45018
G1 X139.362 Y119.361 E21.62195
G1 X138.916 Y119.856 E21.7632
G1 X139.289 Y120.296 E21.88549
G1 X139.748 Y120.964 E22.05731
G1 X140.14 Y121.673 E22.22906
G1 X140.46 Y122.418 E22.40096
G1 X140.705 Y123.191 E22.57287
G1 X140.872 Y123.984 E22.74467
G1 X140.961 Y124.789 E22.91637
G1 X140.97 Y125.599 E23.0881
G1 X140.899 Y126.407 E23.26006
G1 X140.845 Y126.695 E23.32218
G1 X140.942 Y127.392 E23.47137
G1 X140.976 Y128.134 E23.62883
G1 X140.976 Y135.094 E25.10435
G1 X140.936 Y135.903 E25.27607
G1 X140.845 Y136.509 E25.40598
G1 X140.942 Y137.202 E25.55433
G1 X140.976 Y138.012 E25.7262
G1 X140.929 Y138.821 E25.898
G1 X140.803 Y139.622 E26.0699
G1 X140.598 Y140.406 E26.2417
G1 X140.318 Y141.166 E26.4134
G1 X139.963 Y141.895 E26.5853
G1 X139.539 Y142.586 E26.75717
G1 X139.049 Y143.231 E26.9289
G1 X138.497 Y143.825 E27.10081
G1 X137.89 Y144.361 E27.27248
G1 X137.233 Y144.835 E27.44423
G1 X136.868 Y145.058 E27.53491
G1 X130.549 Y148.706 E29.08175
G1 X130.61 Y148.828 E29.11066
G1 X130.899 Y149.585 E29.28245
G1 X131.037 Y150.056 E29.3865
G1 X133.226 Y158.435 E31.22246
G1 X133.392 Y159.228 E31.39422
G1 X133.479 Y160.034 E31.56609
G1 X133.486 Y160.844 E31.73781
G1 X133.414 Y161.651 E31.90958
G1 X133.262 Y162.447 E32.08138
G1 X133.234 Y162.54 E32.10197
G1 X133.523 Y162.959 E32.20988
G1 X133.915 Y163.668 E32.38163
G1 X134.236 Y164.412 E32.55341
G1 X134.482 Y165.184 E32.72518
G1 X134.65 Y165.977 E32.89703
G1 X134.74 Y166.783 E33.06896
G1 X134.749 Y167.593 E33.24069
G1 X134.679 Y168.4 E33.41242
G1 X134.474 Y169.416 E33.63215
G1 X134.175 Y170.53 E33.87668
G1 X134.161 Y170.582 E33.8881
G1 X134.134 Y170.68 E33.90965
G1 X133.88 Y171.45 E34.08154
G1 X133.552 Y172.191 E34.25333
G1 X133.153 Y172.896 E34.42507
G1 X132.686 Y173.558 E34.59682
G1 X132.155 Y174.171 E34.76875
G1 X131.568 Y174.729 E34.94045
G1 X130.928 Y175.226 E35.11224
G1 X130.242 Y175.658 E35.2841
G1 X129.517 Y176.02 E35.4559
G1 X128.759 Y176.309 E35.62788
G1 X127.977 Y176.522 E35.7997
G1 X127.178 Y176.656 E35.97146
G1 X126.37 Y176.712 E36.14316
G1 X125.56 Y176.687 E36.31496
G1 X124.756 Y176.583 E36.48683
G1 X124.088 Y176.433 E36.63197
G1 X116.99 Y174.531 E38.18984
G1 X116.94 Y174.518 E38.20079
G1 X108.589 Y172.224 E40.03678
G1 X107.819 Y171.971 E40.20861
G1 X107.078 Y171.643 E40.3804
G1 X106.372 Y171.244 E40.55233
G1 X105.71 Y170.777 E40.72408
G1 X105.096 Y170.248 E40.89589
G1 X104.538 Y169.66 E41.06774
G1 X104.04 Y169.021 E41.23949
G1 X103.608 Y168.335 E41.41136
G1 X103.246 Y167.61 E41.58315
G1 X102.956 Y166.853 E41.75501
G1 X102.817 Y166.378 E41.85994
G1 X102.338 Y164.544 E42.26179
G1 X101.991 Y164.67 E42.34005
G1 X101.206 Y164.869 E42.51173
G1 X100.404 Y164.99 E42.68368
G1 X99.582 Y165.031 E42.85816
G1 X98.074 Y165.031 E43.17786
G1 X96.541 Y166.065 E43.56987
G1 X96.385 Y166.688 E43.70603
G1 X96.11 Y167.45 E43.87777
G1 X95.762 Y168.182 E44.0496
G1 X95.343 Y168.876 E44.22146
G1 X94.858 Y169.526 E44.39339
G1 X94.312 Y170.124 E44.56506
G1 X93.709 Y170.666 E44.73695
G1 X93.056 Y171.145 E44.90864
G1 X92.358 Y171.558 E45.08057
G1 X91.624 Y171.9 E45.25224
G1 X90.859 Y172.168 E45.42409
G1 X90.071 Y172.36 E45.59603
G1 X89.269 Y172.472 E45.76771
G1 X88.527 Y172.506 E45.92518
G1 X78.679 Y172.506 E48.01295
G1 X67.131 Y172.434 E50.46117
G1 X66.322 Y172.389 E50.63295
G1 X65.521 Y172.264 E50.80482
G1 X64.736 Y172.061 E50.97671
G1 X63.975 Y171.782 E51.14854
G1 X63.246 Y171.43 E51.32016
G1 X62.554 Y171.007 E51.49211
G1 X61.908 Y170.518 E51.66387
G1 X61.313 Y169.967 E51.83579
G1 X60.775 Y169.361 E52.00758
G1 X60.3 Y168.705 E52.17929
G1 X60.042 Y168.281 E52.28451
G1 X54.332 Y158.245 E54.7324
G1 X53.966 Y157.522 E54.9042
G1 X53.674 Y156.766 E55.07601
G1 X53.457 Y155.985 E55.24785
G1 X53.319 Y155.187 E55.41954
G1 X53.259 Y154.379 E55.59131
G1 X53.28 Y153.568 E55.7633
G1 X53.38 Y152.764 E55.93506
G1 X53.56 Y151.974 E56.10683
G1 X53.816 Y151.205 E56.27865
G1 X54.146 Y150.465 E56.45043
G1 X54.383 Y150.031 E56.55526
G1 X60.219 Y140.067 E59.00329
G1 X60.663 Y139.389 E59.1751
G1 X60.712 Y139.328 E59.19169
G1 X57.935 Y134.518 E60.36916
G1 X57.565 Y133.797 E60.54096
G1 X57.268 Y133.043 E60.71276
G1 X57.047 Y132.264 E60.88443
G1 X56.903 Y131.466 E61.05633
G1 X56.839 Y130.658 E61.22817
G1 X56.854 Y129.848 E61.39992
G1 X56.95 Y129.043 E61.57179
G1 X57.124 Y128.252 E61.74349
G1 X57.375 Y127.481 E61.91538
G1 X57.701 Y126.739 E62.0872
G1 X57.935 Y126.304 E62.19192
G1 X63.563 Y116.553 E64.57874
G1 X61.139 Y112.414 E65.59561
G1 X60.765 Y111.695 E65.76743
G1 X60.463 Y110.943 E65.93923
G1 X60.236 Y110.165 E66.11104
G1 X60.088 Y109.368 E66.2829
G1 X60.018 Y108.561 E66.45462
G1 X60.029 Y107.75 E66.62657
G1 X60.119 Y106.945 E66.79829
G1 X60.288 Y106.152 E66.97019
G1 X60.535 Y105.38 E67.14202
G1 X60.856 Y104.636 E67.3138
G1 X61.088 Y104.2 E67.41851
G1 X66.798 Y94.164 E69.8664
G1 X67.233 Y93.48 E70.03825
G1 X67.733 Y92.842 E70.21009
G1 X68.294 Y92.257 E70.38192
G1 X68.909 Y91.73 E70.55362
G0 F3927.3 X69.316 Y92.087
G1 F1800 X69.965 Y91.648 E70.71973
G1 X70.656 Y91.277 E70.886
G1 X71.381 Y90.979 E71.05218
G1 X72.132 Y90.756 E71.21826
G1 X72.902 Y90.611 E71.38437
G1 X73.89 Y90.541 E71.59435
G1 X85.438 Y90.469 E74.04258
G1 X95.283 Y90.469 E76.12972
G1 X96.066 Y90.509 E76.29593
G1 X96.84 Y90.628 E76.46195
G1 X97.599 Y90.826 E76.62824
G1 X98.333 Y91.1 E76.79433
G1 X99.036 Y91.448 E76.96063
G1 X99.7 Y91.865 E77.12686
G1 X100.317 Y92.347 E77.29284
G1 X100.883 Y92.89 E77.45913
G1 X101.39 Y93.488 E77.62533
G1 X101.771 Y94.045 E77.7684
G1 X104.32 Y93.414 E78.3251
G1 X105.089 Y93.265 E78.49116
G1 X106.165 Y93.189 E78.71984
G1 X110.097 Y93.189 E79.55342
G1 X113.809 Y92.269 E80.36418
G1 X114.579 Y92.119 E80.53048
G1 X115.359 Y92.049 E80.69651
G1 X116.143 Y92.058 E80.86273
G1 X116.922 Y92.148 E81.02897
G1 X117.688 Y92.316 E81.19523
G1 X118.432 Y92.561 E81.36129
G1 X119.148 Y92.881 E81.52755
G1 X119.827 Y93.272 E81.69366
G1 X120.463 Y93.73 E81.85981
G1 X121.049 Y94.251 E82.02604
G1 X121.421 Y94.657 E82.14278
G1 X121.533 Y94.591 E82.17034
G1 X121.574 Y94.567 E82.18041
G1 X127.937 Y90.893 E83.73809
G1 X128.635 Y90.536 E83.9043
G1 X129.366 Y90.252 E84.07055
G1 X130.122 Y90.044 E84.23678
G1 X130.895 Y89.914 E84.40296
G1 X131.677 Y89.864 E84.56908
G1 X132.46 Y89.893 E84.73519
G1 X133.236 Y90.002 E84.90132
G1 X133.997 Y90.19 E85.0675
G1 X134.735 Y90.454 E85.23366
G1 X135.443 Y90.792 E85.39999
G1 X136.112 Y91.2 E85.56611
G1 X136.736 Y91.674 E85.73224
G1 X137.308 Y92.21 E85.89842
G1 X137.823 Y92.801 E86.06461
G1 X138.434 Y93.704 E86.29575
G1 X139.062 Y94.791 E86.56189
G1 X139.419 Y95.488 E86.72791
G1 X139.703 Y96.219 E86.89416
G1 X139.911 Y96.975 E87.06039
G1 X140.042 Y97.748 E87.2266
G1 X140.092 Y98.53 E87.39273
G1 X140.063 Y99.313 E87.55884
G1 X139.954 Y100.089 E87.72496
G1 X139.767 Y100.85 E87.89109
G1 X139.518 Y101.545 E88.04761
G1 X139.755 Y101.947 E88.14654
G1 X140.082 Y102.659 E88.31264
G1 X140.335 Y103.401 E88.47884
G1 X140.511 Y104.165 E88.64505
G1 X140.608 Y104.943 E88.81126
G1 X140.629 Y105.458 E88.92053
G1 X140.683 Y114.118 E90.75649
G1 X140.648 Y114.901 E90.92265
G1 X140.533 Y115.677 E91.08896
G1 X140.34 Y116.436 E91.25499
G1 X140.071 Y117.172 E91.42111
G1 X139.728 Y117.877 E91.58732
G1 X139.315 Y118.543 E91.75346
G1 X138.836 Y119.164 E91.91972
G1 X138.296 Y119.733 E92.08603
G1 X138.171 Y119.84 E92.12091
G1 X138.43 Y120.096 E92.19811
G1 X138.929 Y120.7 E92.36421
G1 X139.364 Y121.353 E92.53055
G1 X139.73 Y122.046 E92.6967
G1 X140.024 Y122.772 E92.86275
G1 X140.242 Y123.525 E93.02894
G1 X140.382 Y124.297 E93.19527
G1 X140.443 Y125.078 E93.36135
G1 X140.424 Y125.862 E93.52761
G1 X140.326 Y126.639 E93.69364
G1 X140.306 Y126.726 E93.71256
G1 X140.368 Y127.045 E93.78145
G1 X140.446 Y128.134 E94.01291
G1 X140.446 Y135.094 E95.48843
G1 X140.406 Y135.877 E95.65465
G1 X140.305 Y136.533 E95.79536
G1 X140.368 Y136.855 E95.86492
G1 X140.44 Y137.635 E96.03098
G1 X140.431 Y138.419 E96.1972
G1 X140.343 Y139.198 E96.3634
G1 X140.176 Y139.964 E96.5296
G1 X139.932 Y140.708 E96.6956
G1 X139.613 Y141.424 E96.86177
G1 X139.223 Y142.104 E97.02796
G1 X138.765 Y142.741 E97.19429
G1 X138.245 Y143.327 E97.36038
G1 X137.668 Y143.858 E97.52662
G1 X137.04 Y144.327 E97.69278
G1 X136.603 Y144.599 E97.80191
G1 X129.856 Y148.494 E99.45351
G1 X129.885 Y148.543 E99.46558
G1 X130.215 Y149.254 E99.63176
G1 X130.524 Y150.19 E99.84072
G1 X132.713 Y158.569 E101.67669
G1 X132.873 Y159.336 E101.84279
G1 X132.953 Y160.116 E102.00902
G1 X132.953 Y160.9 E102.17523
G1 X132.874 Y161.679 E102.34122
G1 X132.715 Y162.447 E102.50749
G1 X132.655 Y162.638 E102.54993
G1 X132.719 Y162.717 E102.57149
G1 X133.152 Y163.37 E102.73759
G1 X133.517 Y164.064 E102.90383
G1 X133.809 Y164.791 E103.06992
G1 X134.025 Y165.545 E103.2362
G1 X134.164 Y166.316 E103.40228
G1 X134.223 Y167.098 E103.56854
G1 X134.202 Y167.881 E103.7346
G1 X134.101 Y168.659 E103.90092
G1 X133.962 Y169.278 E104.03541
G1 X133.663 Y170.392 E104.27994
G1 X133.65 Y170.441 E104.29069
G1 X133.623 Y170.539 E104.31224
G1 X133.376 Y171.283 E104.47843
G1 X133.056 Y171.998 E104.6445
G1 X132.663 Y172.677 E104.81082
G1 X132.204 Y173.312 E104.97692
G1 X131.683 Y173.897 E105.143
G1 X131.104 Y174.426 E105.30926
G1 X130.475 Y174.894 E105.47547
G1 X129.801 Y175.294 E105.64163
G1 X129.09 Y175.624 E105.80781
G1 X128.349 Y175.88 E105.97401
G1 X127.586 Y176.06 E106.14021
G1 X126.809 Y176.16 E106.30629
G1 X126.025 Y176.181 E106.47256
G1 X125.244 Y176.121 E106.63862
G1 X124.225 Y175.921 E106.85876
G1 X117.127 Y174.019 E108.41663
G1 X117.08 Y174.006 E108.42697
G1 X108.729 Y171.712 E110.26296
G1 X107.985 Y171.467 E110.42902
G1 X107.27 Y171.146 E110.59518
G1 X106.591 Y170.755 E110.76128
G1 X105.955 Y170.296 E110.92756
G1 X105.37 Y169.775 E111.09364
G1 X104.84 Y169.197 E111.25989
G1 X104.373 Y168.568 E111.42597
G1 X103.971 Y167.894 E111.59235
G1 X103.641 Y167.184 E111.75833
G1 X103.33 Y166.244 E111.96823
G1 X102.7 Y163.831 E112.49694
G1 X102.501 Y163.925 E112.5436
G1 X101.762 Y164.185 E112.70968
G1 X101 Y164.369 E112.87586
G1 X100.223 Y164.474 E113.04208
G1 X99.582 Y164.501 E113.1781
G1 X97.91 Y164.501 E113.53256
G1 X96.069 Y165.743 E114.00337
G1 X96.053 Y165.848 E114.02588
G1 X95.855 Y166.607 E114.19218
G1 X95.581 Y167.341 E114.35827
G1 X95.233 Y168.044 E114.52457
G1 X94.816 Y168.708 E114.69079
G1 X94.334 Y169.325 E114.85678
G1 X93.791 Y169.891 E115.02306
G1 X93.193 Y170.398 E115.18927
G1 X92.546 Y170.841 E115.35551
G1 X91.858 Y171.216 E115.52162
G1 X91.136 Y171.52 E115.6877
G1 X90.386 Y171.748 E115.85388
G1 X89.616 Y171.898 E116.02019
G1 X88.527 Y171.976 E116.25165
G1 X78.682 Y171.976 E118.33879
G1 X67.134 Y171.904 E120.78702
G1 X66.352 Y171.859 E120.95307
G1 X65.578 Y171.735 E121.11925
G1 X64.82 Y171.532 E121.28561
G1 X64.088 Y171.254 E121.45161
G1 X63.387 Y170.902 E121.61791
G1 X62.726 Y170.48 E121.78416
G1 X62.112 Y169.994 E121.95017
G1 X61.55 Y169.448 E122.11629
G1 X61.046 Y168.847 E122.28257
G1 X60.502 Y168.019 E122.4926
G1 X54.792 Y157.983 E124.94049
G1 X54.44 Y157.283 E125.1066
G1 X54.161 Y156.551 E125.27267
G1 X53.958 Y155.794 E125.43883
G1 X53.833 Y155.02 E125.60504
G1 X53.787 Y154.237 E125.77133
G1 X53.822 Y153.454 E125.93749
G1 X53.936 Y152.679 E126.10356
G1 X54.128 Y151.919 E126.26974
G1 X54.397 Y151.183 E126.43586
G1 X54.841 Y150.299 E126.64558
G1 X60.677 Y140.335 E129.09361
G1 X61.107 Y139.68 E129.25972
G1 X61.353 Y139.378 E129.3423
G1 X58.394 Y134.253 E130.59689
G1 X58.038 Y133.555 E130.763
G1 X57.754 Y132.825 E130.92906
G1 X57.546 Y132.069 E131.09528
G1 X57.416 Y131.296 E131.26146
G1 X57.366 Y130.514 E131.42758
G1 X57.395 Y129.73 E131.59391
G1 X57.504 Y128.954 E131.76003
G1 X57.692 Y128.193 E131.92622
G1 X57.956 Y127.455 E132.09238
G1 X58.394 Y126.569 E132.30191
G1 X64.166 Y116.569 E134.74972
G1 X64.177 Y116.551 E134.75419
G1 X61.597 Y112.146 E135.83644
G1 X61.236 Y111.45 E136.00266
G1 X60.947 Y110.721 E136.16891
G1 X60.735 Y109.967 E136.33495
G1 X60.6 Y109.195 E136.5011
G1 X60.544 Y108.413 E136.66731
G1 X60.569 Y107.63 E136.83339
G1 X60.673 Y106.853 E136.99958
G1 X60.856 Y106.09 E137.16592
G1 X61.116 Y105.351 E137.33201
G1 X61.548 Y104.462 E137.54155
G1 X67.258 Y94.426 E139.98944
G1 X67.68 Y93.765 E140.1557
G1 X68.167 Y93.151 E140.32184
G1 X68.714 Y92.589 E140.4881
G1 X69.316 Y92.087 E140.65427
G0 F3927.3 X69.72 Y92.447
G1 F1800 X70.353 Y92.034 E140.81451
G1 X71.027 Y91.69 E140.97493
G1 X71.733 Y91.419 E141.13525
G1 X72.464 Y91.224 E141.29564
G1 X73.211 Y91.108 E141.4559
G1 X73.893 Y91.071 E141.6007
G1 X85.441 Y90.999 E144.04892
G1 X95.283 Y90.999 E146.13543
G1 X96.038 Y91.039 E146.29571
G1 X96.785 Y91.158 E146.45607
G1 X97.515 Y91.356 E146.61642
G1 X98.22 Y91.63 E146.77677
G1 X98.892 Y91.976 E146.93701
G1 X99.524 Y92.392 E147.09742
G1 X100.109 Y92.872 E147.25784
G1 X100.64 Y93.41 E147.4181
G1 X101.11 Y94.002 E147.57834
G1 X101.516 Y94.641 E147.73884
G1 X101.527 Y94.663 E147.74406
G1 X101.69 Y94.61 E147.78039
G1 X104.447 Y93.928 E148.3825
G1 X105.19 Y93.786 E148.54286
G1 X106.165 Y93.719 E148.75005
G1 X110.16 Y93.719 E149.59699
G1 X113.937 Y92.783 E150.42194
G1 X114.679 Y92.64 E150.58213
G1 X115.433 Y92.577 E150.74254
G1 X116.189 Y92.593 E150.90285
G1 X116.939 Y92.689 E151.06314
G1 X117.675 Y92.863 E151.22348
G1 X118.389 Y93.115 E151.384
G1 X119.071 Y93.44 E151.54416
G1 X119.716 Y93.835 E151.7045
G1 X120.316 Y94.296 E151.86491
G1 X120.863 Y94.818 E152.02521
G1 X121.304 Y95.339 E152.16991
G1 X121.801 Y95.048 E152.29201
G1 X121.839 Y95.026 E152.30132
G1 X128.202 Y91.352 E153.85899
G1 X128.876 Y91.009 E154.01932
G1 X129.583 Y90.739 E154.17976
G1 X130.314 Y90.545 E154.3401
G1 X131.061 Y90.429 E154.50036
G1 X131.817 Y90.393 E154.66081
